X:0411
M:2/4
L:1/8
Q:1/4=100
K:G
d2BB|   B3 G| AAAB         |  (d>c).Bz |\
g2fa|   g2fa| gdcB         |   B2   Az:|
f2ed|   f2ed| g>d =f/e/d/c/|   B2   A2 |G4 |
f2ed|   f2ed| gd  =f/e/d/c/|   B2   A2 |G4|]

